X:1
T:Green Grow the Rashes, O
M:2/4
L:1/8
K:Eb
 z2 z E| E3/2 E/2 G3/2 F/2| G/2 E3/2 EG| F3/2 F/2 c3/2 B/2| c/2 F3/2 FG|\
 A3/2 G/2 A3/2 c/2| B3/2 G/2 E3/2 G/2| F3/2 A/2 G3/2 F/2| E/2 C3/2 C2|\
 B2 e3/2 d/2| e/2 B3/2 B2| c2 f3/2 =e/2| f/2 c3/2 cd| e3/2 f/2 ec|\
 B/2 G3/2 E3/2 G/2| F3/2 A/2 G3/2 F/2| E/2 C3/2 C z|
